X: 13
T: Shanqian shanhou liaobujian ni
L: 1/8
M: 2/4
K: A
E> EE2 [I:setbarnb 1]| 
E ae2 | 
e> a c A | 
B4 | 
e> ae2 | 
e a e d | 
B A B, D | 
E4 |]

@@@ Tune index: 8887
